X: 1498
T: Goondawindi Waltz
B: australian traditional tunes wiki
M:3/4
L:1/8
R: Waltz
Q: 1/4=100
K:G
V:1 
||"G"G,2B,3D|"G"B4Bc|"G"d2e2d2|"C"c4B2|"D7"cB AG FE|"D7"D4DD|"D7"D2c2F2|"G"G4D2|
"G"G,2B,3D|"G"B4Bc|"G"d2e2d2|"C"c4B2|"D7"A2F3A|"D7"A2F2A2|"C"efe2d2|"G"d4B2|
"G"G,2B,3D|"G"B4Bc|"G"d2e2d2|"C"c4B2|"D7"cB AG FE|"D7"D4DD|"D7"D2c2F2|"G"G6||
% abcbook-tune_id 6342d53ac7bf4814ac0ec469


% abcbook-boost 0
% abcbook-tablature 
% abcbook-transpose 
% abcbook-lastupdated 1665324367963
% abcbook-soundfonts 
% abcbook-repeats 1
% NFF Book 2013

